icons/home_alt_fill.svg

<svg width="48" height="48" viewBox="0 0 48 48" fill="none" xmlns="http://www.w3.org/2000/svg">
<path d="M41.7083 25.7942L24.0579 8.08594L6.29405 25.7919C5.90289 26.1818 5.90185 26.8149 6.29174 27.2061C6.68163 27.5973 7.31479 27.5983 7.70595 27.2084L11 23.9251V39C11 39.5523 11.4477 40 12 40H19C19.5523 40 20 39.5523 20 39V31.0002C20 29.8957 20.8954 29.0002 22 29.0002H26C27.1046 29.0002 28 29.8957 28 31.0002V39C28 39.5523 28.4477 40 29 40H36C36.5523 40 37 39.5523 37 39V23.9036L40.2917 27.2061C40.6816 27.5973 41.3148 27.5983 41.7059 27.2084C42.0971 26.8185 42.0981 26.1854 41.7083 25.7942Z" fill="black"/>
</svg>

<svg
  xmlns="http://www.w3.org/2000/svg"
  width="24"
  height="24"
  viewBox="0 0 24 24"
  fill="none"
  stroke="currentColor"
  stroke-width="2"
  stroke-linecap="round"
  stroke-linejoin="round"
>
  <path d="M41.708 25.794 24.058 8.086 6.294 25.792a1 1 0 1 0 1.412 1.416L11 23.925V39a1 1 0 0 0 1 1h7a1 1 0 0 0 1-1v-8a2 2 0 0 1 2-2h4a2 2 0 0 1 2 2v8a1 1 0 0 0 1 1h7a1 1 0 0 0 1-1V23.904l3.292 3.302a1 1 0 1 0 1.416-1.412" />
</svg>
